; generated by PrusaSlicer 2.3.1+win64 on 2021-07-13 at 17:22:31 UTC

; 

; external perimeters extrusion width = 0.45mm
; perimeters extrusion width = 0.45mm
; infill extrusion width = 0.45mm
; solid infill extrusion width = 0.45mm
; top infill extrusion width = 0.40mm
; first layer extrusion width = 0.42mm

M201 X9000 Y9000 Z500 E10000 ; sets maximum accelerations, mm/sec^2
M203 X500 Y500 Z12 E120 ; sets maximum feedrates, mm/sec
M204 P1500 R1500 T1500 ; sets acceleration (P, T) and retract acceleration (R), mm/sec^2
M205 X10.00 Y10.00 Z0.20 E2.50 ; sets the jerk limits, mm/sec
M205 S0 T0 ; sets the minimum extruding and travel feed rate, mm/sec
M107
M190 S60 ; set bed temperature and wait for it to be reached
M104 S175 ; set temperature
;TYPE:Custom
;G28 ; home all axes
;G1 Z5 F5000 ; lift nozzle
M109 S175 ; set temperature and wait for it to be reached
G21 ; set units to millimeters
G90 ; use absolute coordinates
M82 ; use absolute distances for extrusion
G92 E0
; Filament gcode
;LAYER_CHANGE
;Z:0.01
;HEIGHT:0.01
;G1 Z0.010 F7800.000
G1 E-2.00000 F2400.000
G92 E0
;G1 Z0.110 F7800.000
G1 X85.780 Y85.164
;G1 Z0.010
G1 E2.00000 F2400.000
;TYPE:Skirt
;WIDTH:0.42
G1 F1800.000
G1 X86.857 Y84.404 E2.00229
G1 X88.061 Y83.882 E2.00457
G1 X89.352 Y83.615 E2.00686
G1 X110.006 Y83.582 E2.04274
G1 X111.127 Y83.682 E2.04470
G1 X112.213 Y83.976 E2.04665
G1 X113.231 Y84.455 E2.04860
G1 X114.150 Y85.104 E2.05056
G1 X114.941 Y85.904 E2.05251
G1 X115.580 Y86.830 E2.05447
G1 X116.048 Y87.853 E2.05642
G1 X116.329 Y88.936 E2.05837
G1 X116.418 Y89.977 E2.06018
G1 X116.410 Y110.313 E2.09551
G1 X116.291 Y111.268 E2.09718
G1 X116.031 Y112.195 E2.09886
G1 X115.634 Y113.073 E2.10053
G1 X115.115 Y113.876 E2.10219
G1 X114.149 Y114.897 E2.10463
G1 X112.978 Y115.685 E2.10708
G1 X111.669 Y116.197 E2.10953
G1 X110.274 Y116.412 E2.11198
G1 X89.656 Y116.409 E2.14780
G1 X88.713 Y116.288 E2.14945
G1 X87.793 Y116.026 E2.15111
G1 X86.927 Y115.634 E2.15276
G1 X86.124 Y115.115 E2.15442
G1 X85.103 Y114.149 E2.15686
G1 X84.315 Y112.978 E2.15932
G1 X83.803 Y111.669 E2.16176
G1 X83.588 Y110.274 E2.16421
G1 X83.591 Y89.656 E2.20003
G1 X83.712 Y88.713 E2.20168
G1 X83.974 Y87.793 E2.20334
G1 X84.366 Y86.927 E2.20499
G1 X84.885 Y86.124 E2.20665
G1 X85.739 Y85.208 E2.20883
G1 E0.20883 F2400.000
G92 E0
G1 Z0.110 F7800.000
G1 X87.727 Y86.195
G1 Z0.010
G1 E2.00000 F2400.000
G1 F1800.000
G1 X89.462 Y85.613 E2.00318
G1 X110.497 Y85.617 E2.03972
G1 X111.380 Y85.795 E2.04129
G1 X112.203 Y86.158 E2.04285
G1 X113.357 Y87.147 E2.04549
G1 X114.059 Y88.238 E2.04774
G1 X114.387 Y89.488 E2.04999
G1 X114.387 Y110.512 E2.08651
G1 X114.086 Y111.698 E2.08864
G1 X113.425 Y112.780 E2.09084
G1 X112.810 Y113.395 E2.09235
G1 X112.273 Y113.805 E2.09353
G1 X110.538 Y114.387 E2.09671
G1 X89.488 Y114.387 E2.13328
G1 X88.302 Y114.086 E2.13540
G1 X87.220 Y113.425 E2.13760
G1 X86.605 Y112.810 E2.13911
G1 X86.195 Y112.273 E2.14029
G1 X85.613 Y110.538 E2.14347
G1 X85.613 Y89.488 E2.18004
G1 X85.914 Y88.302 E2.18216
G1 X86.575 Y87.220 E2.18437
G1 X87.190 Y86.605 E2.18588
G1 X87.679 Y86.231 E2.18694
G1 X87.932 Y86.564 F7800.000
G1 F1800.000
G1 X89.496 Y86.030 E2.18982
G1 X110.475 Y86.034 E2.22626
G1 X111.273 Y86.199 E2.22768
G1 X112.004 Y86.526 E2.22907
G1 X113.061 Y87.443 E2.23150
G1 X113.664 Y88.379 E2.23343
G1 X113.970 Y89.516 E2.23548
G1 X113.970 Y110.485 E2.27191
G1 X113.689 Y111.562 E2.27384
G1 X113.112 Y112.502 E2.27576
G1 X112.525 Y113.089 E2.27720
G1 X112.048 Y113.452 E2.27824
G1 X110.504 Y113.970 E2.28107
G1 X89.515 Y113.970 E2.31753
G1 X88.438 Y113.689 E2.31947
G1 X87.498 Y113.112 E2.32138
G1 X86.911 Y112.525 E2.32282
G1 X86.548 Y112.048 E2.32386
G1 X86.030 Y110.504 E2.32669
G1 X86.030 Y89.515 E2.36316
G1 X86.311 Y88.438 E2.36509
G1 X86.888 Y87.498 E2.36701
G1 X87.475 Y86.911 E2.36845
G1 X87.884 Y86.600 E2.36934
G1 X88.136 Y86.933 F7800.000
G1 F1800.000
G1 X88.177 Y86.902 E2.36943
G1 X89.530 Y86.448 E2.37191
G1 X110.454 Y86.452 E2.40826
G1 X111.123 Y86.590 E2.40945
G1 X111.804 Y86.894 E2.41074
G1 X112.762 Y87.736 E2.41296
G1 X113.294 Y88.575 E2.41468
G1 X113.552 Y89.543 E2.41642
G1 X113.552 Y110.457 E2.45276
G1 X113.294 Y111.424 E2.45450
G1 X112.800 Y112.223 E2.45613
G1 X112.240 Y112.783 E2.45750
G1 X111.823 Y113.098 E2.45841
G1 X110.470 Y113.552 E2.46089
G1 X89.543 Y113.552 E2.49725
G1 X88.576 Y113.294 E2.49898
G1 X87.777 Y112.800 E2.50062
G1 X87.217 Y112.240 E2.50199
G1 X86.902 Y111.823 E2.50290
G1 X86.448 Y110.470 E2.50538
G1 X86.448 Y89.543 E2.54173
G1 X86.706 Y88.576 E2.54347
G1 X87.200 Y87.777 E2.54510
G1 X87.760 Y87.217 E2.54648
G1 X88.088 Y86.969 E2.54719
G1 X89.564 Y86.866 F7800.000
G1 F1800.000
G1 X110.431 Y86.870 E2.58345
G1 X111.013 Y86.994 E2.58448
G1 X111.601 Y87.261 E2.58560
G1 X112.462 Y88.028 E2.58760
G1 X112.899 Y88.716 E2.58902
G1 X113.134 Y89.571 E2.59056
G1 X113.134 Y110.429 E2.62679
G1 X112.899 Y111.284 E2.62833
G1 X112.488 Y111.944 E2.62969
G1 X111.955 Y112.477 E2.63100
G1 X111.600 Y112.743 E2.63177
G1 X110.436 Y113.134 E2.63390
G1 X89.571 Y113.134 E2.67015
G1 X88.716 Y112.899 E2.67169
G1 X88.056 Y112.488 E2.67304
G1 X87.523 Y111.955 E2.67435
G1 X87.257 Y111.600 E2.67512
G1 X86.866 Y110.436 E2.67725
G1 X86.866 Y89.571 E2.71350
G1 X87.101 Y88.716 E2.71504
G1 X87.512 Y88.056 E2.71639
G1 X88.045 Y87.523 E2.71770
G1 X88.400 Y87.257 E2.71847
G1 X89.507 Y86.885 E2.72050
G1 X89.598 Y87.284 F7800.000
G1 F1800.000
G1 X110.408 Y87.288 E2.75665
G1 X110.899 Y87.396 E2.75753
G1 X111.395 Y87.626 E2.75848
G1 X112.160 Y88.319 E2.76027
G1 X112.506 Y88.860 E2.76138
G1 X112.716 Y89.601 E2.76272
G1 X112.716 Y110.399 E2.79885
G1 X112.506 Y111.140 E2.80019
G1 X112.176 Y111.665 E2.80127
G1 X111.671 Y112.170 E2.80251
G1 X111.377 Y112.388 E2.80314
G1 X110.402 Y112.716 E2.80493
G1 X89.601 Y112.716 E2.84107
G1 X88.860 Y112.506 E2.84241
G1 X88.335 Y112.176 E2.84348
G1 X87.830 Y111.671 E2.84473
G1 X87.612 Y111.377 E2.84536
G1 X87.284 Y110.402 E2.84715
G1 X87.284 Y89.601 E2.88328
G1 X87.494 Y88.860 E2.88462
G1 X87.824 Y88.335 E2.88570
G1 X88.329 Y87.830 E2.88694
G1 X88.623 Y87.612 E2.88758
G1 X89.541 Y87.303 E2.88926
G1 X89.632 Y87.702 F7800.000
G1 F1800.000
G1 X110.383 Y87.706 E2.92531
G1 X110.782 Y87.798 E2.92602
G1 X111.187 Y87.989 E2.92680
G1 X111.857 Y88.607 E2.92838
G1 X112.114 Y89.008 E2.92921
G1 X112.298 Y89.632 E2.93034
G1 X112.298 Y110.368 E2.96636
G1 X112.114 Y110.992 E2.96749
G1 X111.865 Y111.385 E2.96830
G1 X111.387 Y111.863 E2.96948
G1 X111.157 Y112.032 E2.96997
G1 X110.368 Y112.298 E2.97142
G1 X89.632 Y112.298 E3.00744
G1 X89.008 Y112.114 E3.00857
G1 X88.615 Y111.865 E3.00938
G1 X88.137 Y111.387 E3.01055
G1 X87.968 Y111.157 E3.01105
G1 X87.702 Y110.368 E3.01250
G1 X87.702 Y89.632 E3.04852
G1 X87.886 Y89.008 E3.04965
G1 X88.135 Y88.615 E3.05046
G1 X88.613 Y88.137 E3.05163
G1 X88.843 Y87.968 E3.05213
G1 X89.575 Y87.721 E3.05347
G1 X89.666 Y88.120 F7800.000
G1 F1800.000
G1 X110.359 Y88.124 E3.08942
G1 X110.623 Y88.185 E3.08989
G1 X110.978 Y88.353 E3.09057
G1 X111.552 Y88.893 E3.09194
G1 X111.724 Y89.160 E3.09249
G1 X111.880 Y89.665 E3.09341
G1 X111.880 Y110.335 E3.12932
G1 X111.724 Y110.840 E3.13024
G1 X111.554 Y111.105 E3.13079
G1 X111.104 Y111.555 E3.13189
G1 X110.938 Y111.675 E3.13225
G1 X110.334 Y111.880 E3.13336
G1 X89.665 Y111.880 E3.16926
G1 X89.160 Y111.724 E3.17018
G1 X88.895 Y111.554 E3.17073
G1 X88.445 Y111.104 E3.17183
G1 X88.325 Y110.938 E3.17219
G1 X88.120 Y110.334 E3.17330
G1 X88.120 Y89.665 E3.20920
G1 X88.276 Y89.160 E3.21012
G1 X88.446 Y88.895 E3.21067
G1 X88.896 Y88.445 E3.21178
G1 X89.062 Y88.325 E3.21213
G1 X89.610 Y88.139 E3.21314
G1 X89.277 Y88.684 F7800.000
G1 F1800.000
G1 X89.702 Y88.538 E3.21392
G1 X110.334 Y88.542 E3.24976
G1 X110.464 Y88.572 E3.24999
G1 X110.767 Y88.715 E3.25057
G1 X111.245 Y89.177 E3.25173
G1 X111.337 Y89.319 E3.25202
G1 X111.462 Y89.700 E3.25272
G1 X111.462 Y110.300 E3.28851
G1 X111.337 Y110.681 E3.28920
G1 X111.244 Y110.825 E3.28950
G1 X110.822 Y111.246 E3.29054
G1 X110.723 Y111.316 E3.29075
G1 X110.298 Y111.462 E3.29153
G1 X89.700 Y111.462 E3.32731
G1 X89.319 Y111.337 E3.32801
G1 X89.175 Y111.244 E3.32831
G1 X88.754 Y110.822 E3.32934
G1 X88.684 Y110.723 E3.32955
G1 X88.538 Y110.298 E3.33033
G1 X88.538 Y89.700 E3.36612
G1 X88.663 Y89.319 E3.36681
G1 X88.756 Y89.175 E3.36711
G1 X89.228 Y88.718 E3.36825
G1 X89.487 Y89.046 F7800.000
G1 F1800.000
G1 X89.739 Y88.955 E3.36872
G1 X110.277 Y88.955 E3.40440
G1 X110.554 Y89.077 E3.40492
G1 X110.934 Y89.457 E3.40586
G1 X111.045 Y89.739 E3.40638
G1 X111.045 Y110.261 E3.44203
G1 X110.934 Y110.543 E3.44256
G1 X110.543 Y110.934 E3.44352
G1 X110.261 Y111.045 E3.44405
G1 X89.739 Y111.045 E3.47970
G1 X89.457 Y110.934 E3.48023
G1 X89.066 Y110.543 E3.48119
G1 X88.955 Y110.261 E3.48171
G1 X88.955 Y89.739 E3.51736
G1 X89.066 Y89.457 E3.51789
G1 X89.440 Y89.083 E3.51881
G1 X89.709 Y89.405 F7800.000
G1 F1800.000
G1 X89.785 Y89.373 E3.51895
G1 X110.215 Y89.373 E3.55444
G1 X110.291 Y89.405 E3.55459
G1 X110.595 Y89.709 E3.55534
G1 X110.627 Y89.785 E3.55548
G1 X110.627 Y110.215 E3.59097
G1 X110.595 Y110.291 E3.59111
G1 X110.291 Y110.595 E3.59186
G1 X110.215 Y110.627 E3.59200
G1 X89.785 Y110.627 E3.62749
G1 X89.709 Y110.595 E3.62764
G1 X89.405 Y110.291 E3.62839
G1 X89.373 Y110.215 E3.62853
G1 X89.373 Y89.785 E3.66402
G1 X89.405 Y89.709 E3.66416
G1 X89.666 Y89.447 E3.66481
G1 X89.913 Y89.791 F7800.000
G1 F1800.000
G1 X110.087 Y89.791 E3.69985
G1 X110.209 Y89.913 E3.70015
G1 X110.209 Y110.087 E3.73520
G1 X110.087 Y110.209 E3.73550
G1 X89.913 Y110.209 E3.77054
G1 X89.791 Y110.087 E3.77084
G1 X89.791 Y89.913 E3.80589
G1 X89.871 Y89.833 E3.80609
G1 X90.410 Y90.410 F7800.000
;TYPE:External perimeter
G1 F1800.000
G1 X109.590 Y90.410 E3.83941
G1 X109.590 Y109.590 E3.87273
G1 X90.410 Y109.590 E3.90605
G1 X90.410 Y90.470 E3.93926
G1 X90.796 Y90.514 F7800.000
G1 X90.828 Y90.828
;TYPE:Perimeter
G1 F1800.000
G1 X109.172 Y90.828 E3.97113
G1 X109.172 Y109.172 E4.00300
G1 X90.828 Y109.172 E4.03487
G1 X90.828 Y90.888 E4.06663
G1 X91.246 Y91.246 F7800.000
G1 F1800.000
G1 X108.754 Y91.246 E4.09705
G1 X108.754 Y108.754 E4.12746
G1 X91.246 Y108.754 E4.15788
G1 X91.246 Y91.306 E4.18819
G1 E2.18819 F2400.000
G92 E0
G1 Z0.110 F7800.000
G1 X107.776 Y91.371
G1 Z0.010
G1 E2.00000 F2400.000
;TYPE:Solid infill
;WIDTH:0.423964
G1 F1800.000
G1 X108.441 Y92.036 E2.00165
G1 X108.441 Y92.633 E2.00270
G1 X107.367 Y91.559 E2.00536
G1 X106.771 Y91.559 E2.00640
G1 X108.441 Y93.229 E2.01055
G1 X108.441 Y93.826 E2.01159
G1 X106.174 Y91.559 E2.01721
G1 X105.578 Y91.559 E2.01826
G1 X108.441 Y94.422 E2.02536
G1 X108.441 Y95.019 E2.02641
G1 X104.981 Y91.559 E2.03499
G1 X104.385 Y91.559 E2.03603
G1 X108.441 Y95.615 E2.04609
G1 X108.441 Y96.212 E2.04714
G1 X103.788 Y91.559 E2.05868
G1 X103.192 Y91.559 E2.05973
G1 X108.441 Y96.808 E2.07275
G1 X108.441 Y97.405 E2.07379
G1 X102.595 Y91.559 E2.08829
G1 X101.998 Y91.559 E2.08934
G1 X108.441 Y98.002 E2.10531
G1 X108.441 Y98.598 E2.10636
G1 X101.402 Y91.559 E2.12382
G1 X100.805 Y91.559 E2.12486
G1 X108.441 Y99.195 E2.14380
G1 X108.441 Y99.791 E2.14485
G1 X100.209 Y91.559 E2.16526
G1 X99.612 Y91.559 E2.16631
G1 X108.441 Y100.388 E2.18821
G1 X108.441 Y100.984 E2.18925
G1 X99.016 Y91.559 E2.21263
G1 X98.419 Y91.559 E2.21367
G1 X108.441 Y101.581 E2.23853
G1 X108.441 Y102.177 E2.23958
G1 X97.823 Y91.559 E2.26591
G1 X97.226 Y91.559 E2.26696
G1 X108.441 Y102.774 E2.29477
G1 X108.441 Y103.370 E2.29582
G1 X96.630 Y91.559 E2.32511
G1 X96.033 Y91.559 E2.32616
G1 X108.441 Y103.967 E2.35693
G1 X108.441 Y104.563 E2.35798
G1 X95.437 Y91.559 E2.39023
G1 X94.840 Y91.559 E2.39127
G1 X108.441 Y105.160 E2.42501
G1 X108.441 Y105.757 E2.42605
G1 X94.243 Y91.559 E2.46126
G1 X93.647 Y91.559 E2.46231
G1 X108.441 Y106.353 E2.49900
G1 X108.441 Y106.950 E2.50005
G1 X93.050 Y91.559 E2.53822
G1 X92.454 Y91.559 E2.53926
G1 X108.441 Y107.546 E2.57891
G1 X108.441 Y108.143 E2.57996
G1 X91.857 Y91.559 E2.62109
G1 X91.559 Y91.559 E2.62161
G1 X91.559 Y91.857 E2.62214
G1 X108.143 Y108.441 E2.66326
G1 X107.546 Y108.441 E2.66431
G1 X91.559 Y92.454 E2.70396
G1 X91.559 Y93.051 E2.70501
G1 X106.949 Y108.441 E2.74318
G1 X106.353 Y108.441 E2.74422
G1 X91.559 Y93.647 E2.78091
G1 X91.559 Y94.244 E2.78196
G1 X105.756 Y108.441 E2.81717
G1 X105.160 Y108.441 E2.81822
G1 X91.559 Y94.840 E2.85195
G1 X91.559 Y95.437 E2.85300
G1 X104.563 Y108.441 E2.88525
G1 X103.967 Y108.441 E2.88629
G1 X91.559 Y96.033 E2.91707
G1 X91.559 Y96.630 E2.91811
G1 X103.370 Y108.441 E2.94741
G1 X102.774 Y108.441 E2.94845
G1 X91.559 Y97.226 E2.97627
G1 X91.559 Y97.823 E2.97731
G1 X102.177 Y108.441 E3.00365
G1 X101.581 Y108.441 E3.00469
G1 X91.559 Y98.419 E3.02955
G1 X91.559 Y99.016 E3.03059
G1 X100.984 Y108.441 E3.05397
G1 X100.388 Y108.441 E3.05501
G1 X91.559 Y99.612 E3.07691
G1 X91.559 Y100.209 E3.07796
G1 X99.791 Y108.441 E3.09837
G1 X99.194 Y108.441 E3.09942
G1 X91.559 Y100.806 E3.11836
G1 X91.559 Y101.402 E3.11940
G1 X98.598 Y108.441 E3.13686
G1 X98.001 Y108.441 E3.13790
G1 X91.559 Y101.999 E3.15388
G1 X91.559 Y102.595 E3.15493
G1 X97.405 Y108.441 E3.16943
G1 X96.808 Y108.441 E3.17047
G1 X91.559 Y103.192 E3.18349
G1 X91.559 Y103.788 E3.18454
G1 X96.212 Y108.441 E3.19608
G1 X95.615 Y108.441 E3.19712
G1 X91.559 Y104.385 E3.20718
G1 X91.559 Y104.981 E3.20823
G1 X95.019 Y108.441 E3.21681
G1 X94.422 Y108.441 E3.21786
G1 X91.559 Y105.578 E3.22496
G1 X91.559 Y106.174 E3.22600
G1 X93.826 Y108.441 E3.23162
G1 X93.229 Y108.441 E3.23267
G1 X91.559 Y106.771 E3.23681
G1 X91.559 Y107.367 E3.23786
G1 X92.633 Y108.441 E3.24052
G1 X92.036 Y108.441 E3.24157
G1 X91.371 Y107.776 E3.24322
;LAYER_CHANGE
;Z:0.31
;HEIGHT:0.3
G1 Z0.310 F7800.000
M104 S180 ; set temperature
G1 X90.996 Y90.996
;TYPE:Perimeter
;WIDTH:0.45
G1 F3600.000
G1 X109.004 Y90.996 E4.10932
G1 X109.004 Y109.004 E4.97542
G1 X90.996 Y109.004 E5.84152
G1 X90.996 Y91.056 E6.70473
G1 X90.611 Y90.611 F7800.000
G1 F3600.000
G1 X109.389 Y90.611 E7.60793
G1 X109.389 Y109.389 E8.51112
G1 X90.611 Y109.389 E9.41431
G1 X90.611 Y90.671 E10.31462
G1 X90.225 Y90.410 F7800.000
;TYPE:External perimeter
G1 F1800.000
G1 X90.225 Y90.225 E10.32352
G1 X109.775 Y90.225 E11.26381
G1 X109.775 Y109.775 E12.20410
G1 X90.225 Y109.775 E13.14439
G1 X90.225 Y90.470 E14.07289
G1 X90.356 Y90.279 F7800.000
G1 X108.104 Y108.888
;TYPE:Solid infill
;WIDTH:0.451978
G1 F1200.000
G1 X108.715 Y108.278 E14.11461
G1 X108.715 Y107.730 E14.14111
G1 X107.730 Y108.715 E14.20844
G1 X107.182 Y108.715 E14.23494
G1 X108.715 Y107.182 E14.33974
G1 X108.715 Y106.633 E14.36624
G1 X106.633 Y108.715 E14.50852
G1 X106.085 Y108.715 E14.53502
G1 X108.715 Y106.085 E14.71477
G1 X108.715 Y105.537 E14.74127
G1 X105.537 Y108.715 E14.95850
G1 X104.989 Y108.715 E14.98500
G1 X108.715 Y104.989 E15.23971
G1 X108.715 Y104.441 E15.26621
G1 X104.441 Y108.715 E15.55839
G1 X103.893 Y108.715 E15.58489
G1 X108.715 Y103.893 E15.91455
G1 X108.715 Y103.345 E15.94105
G1 X103.345 Y108.715 E16.30818
G1 X102.796 Y108.715 E16.33468
G1 X108.715 Y102.796 E16.73929
G1 X108.715 Y102.248 E16.76578
G1 X102.248 Y108.715 E17.20787
G1 X101.700 Y108.715 E17.23437
G1 X108.715 Y101.700 E17.71393
G1 X108.715 Y101.152 E17.74042
G1 X101.152 Y108.715 E18.25746
G1 X100.604 Y108.715 E18.28396
G1 X108.715 Y100.604 E18.83847
G1 X108.715 Y100.056 E18.86497
G1 X100.056 Y108.715 E19.45695
G1 X99.508 Y108.715 E19.48345
G1 X108.715 Y99.508 E20.11291
G1 X108.715 Y98.959 E20.13941
G1 X98.959 Y108.715 E20.80635
G1 X98.411 Y108.715 E20.83284
G1 X108.715 Y98.411 E21.53726
G1 X108.715 Y97.863 E21.56375
G1 X97.863 Y108.715 E22.30564
G1 X97.315 Y108.715 E22.33214
G1 X108.715 Y97.315 E23.11150
G1 X108.715 Y96.767 E23.13800
G1 X96.767 Y108.715 E23.95484
G1 X96.219 Y108.715 E23.98134
G1 X108.715 Y96.219 E24.83565
G1 X108.715 Y95.671 E24.86215
G1 X95.671 Y108.715 E25.75394
G1 X95.122 Y108.715 E25.78044
G1 X108.715 Y95.122 E26.70970
G1 X108.715 Y94.574 E26.73620
G1 X94.574 Y108.715 E27.70294
G1 X94.026 Y108.715 E27.72944
G1 X108.715 Y94.026 E28.73365
G1 X108.715 Y93.478 E28.76015
G1 X93.478 Y108.715 E29.80184
G1 X92.930 Y108.715 E29.82834
G1 X108.715 Y92.930 E30.90750
G1 X108.715 Y92.382 E30.93400
G1 X92.382 Y108.715 E32.05064
